tools/download-figma-icons/icons/outlined-large/pot-with-spaghetti.svg

<svg width="64" height="65" viewBox="0 0 64 65" fill="none" xmlns="http://www.w3.org/2000/svg">
<path d="M57.38 28.0029H55V26.5029C55 25.6729 54.33 25.0029 53.5 25.0029H37.53L28.9 2.95291C28.6 2.18291 27.72 1.80291 26.96 2.10291C26.19 2.40291 25.81 3.27291 26.11 4.04291L29.56 12.8629L21.77 0.692909C21.32 -0.00709116 20.39 -0.207091 19.7 0.232909C19 0.682909 18.8 1.60291 19.25 2.30291L33.77 24.9929H32.31L18.75 4.67291C18.29 3.98291 17.36 3.79291 16.67 4.25291C15.98 4.71291 15.79 5.64291 16.25 6.33291L27.65 23.4429L9.59 4.47291C9.02 3.87291 8.07 3.85291 7.47 4.42291C6.87 4.99291 6.85 5.94291 7.42 6.54291L20.54 20.3229L6.48 8.36291C5.85 7.82291 4.9 7.90291 4.37 8.53291C3.83 9.16291 3.91 10.1129 4.54 10.6429L5.16 11.1729C4.59 10.8929 3.89 10.9829 3.43 11.4629C2.86 12.0629 2.88 13.0129 3.47 13.5829L15.36 25.0029H10.5C9.67 25.0029 9 25.6729 9 26.5029V28.0029H6.62C4.12 28.0029 3 31.7729 3 35.5029C3 39.2329 4.12 43.0029 6.62 43.0029H9V54.5029C9 59.7429 13.26 64.0029 18.5 64.0029H45.49C50.73 64.0029 54.99 59.7429 54.99 54.5029V43.0029H57.37C59.87 43.0029 60.99 39.2329 60.99 35.5029C60.99 31.7729 59.87 28.0029 57.37 28.0029H57.38ZM6.89 40.0029C6.54 39.5229 6 37.9029 6 35.5029C6 33.1029 6.54 31.4829 6.89 31.0029H9V40.0029H6.89ZM6.31 12.1529L21.42 25.0029H19.69L6.31 12.1529ZM52 54.5029C52 58.0829 49.08 61.0029 45.5 61.0029H18.5C14.92 61.0029 12 58.0829 12 54.5029V28.0029H51.99V54.5029H52ZM57.11 40.0029H55V31.0029H57.11C57.46 31.4829 58 33.1029 58 35.5029C58 37.9029 57.46 39.5229 57.11 40.0029Z" fill="black"/>
</svg>

<svg xmlns="http://www.w3.org/2000/svg" width="64" height="65" fill="none" viewBox="0 0 64 65"><path fill="currentColor" d="M57.38 28.003H55v-1.5c0-.83-.67-1.5-1.5-1.5H37.53L28.9 2.953c-.3-.77-1.18-1.15-1.94-.85-.77.3-1.15 1.17-.85 1.94l3.45 8.82L21.77.693c-.45-.7-1.38-.9-2.07-.46-.7.45-.9 1.37-.45 2.07l14.52 22.69h-1.46L18.75 4.673a1.5 1.5 0 1 0-2.5 1.66l11.4 17.11L9.59 4.473a1.5 1.5 0 0 0-2.17 2.07l13.12 13.78L6.48 8.363c-.63-.54-1.58-.46-2.11.17-.54.63-.46 1.58.17 2.11l.62.53a1.48 1.48 0 0 0-1.73.29c-.57.6-.55 1.55.04 2.12l11.89 11.42H10.5c-.83 0-1.5.67-1.5 1.5v1.5H6.62c-2.5 0-3.62 3.77-3.62 7.5s1.12 7.5 3.62 7.5H9v11.5c0 5.24 4.26 9.5 9.5 9.5h26.99c5.24 0 9.5-4.26 9.5-9.5v-11.5h2.38c2.5 0 3.62-3.77 3.62-7.5s-1.12-7.5-3.62-7.5zm-50.49 12c-.35-.48-.89-2.1-.89-4.5s.54-4.02.89-4.5H9v9zm-.58-27.85 15.11 12.85h-1.73zM52 54.503c0 3.58-2.92 6.5-6.5 6.5h-27c-3.58 0-6.5-2.92-6.5-6.5v-26.5h39.99v26.5zm5.11-14.5H55v-9h2.11c.35.48.89 2.1.89 4.5s-.54 4.02-.89 4.5"/></svg>
